polaris-icons/icons/new-icons/ProductsMajor.svg

<svg width="20" height="20" viewBox="0 0 20 20" fill="none" xmlns="http://www.w3.org/2000/svg">
<path d="M13 8C13.5523 8 14 7.55228 14 7C14 6.44772 13.5523 6 13 6C12.4477 6 12 6.44772 12 7C12 7.55228 12.4477 8 13 8Z" fill="#4A4A4A"/>
<path fill-rule="evenodd" clip-rule="evenodd" d="M11.2759 3.5C10.2568 3.5 9.28162 3.91477 8.57473 4.64885L4.32112 9.06605C3.28166 10.1455 3.29782 11.8585 4.35746 12.9181L7.25537 15.816C8.21868 16.7793 9.77593 16.794 10.7572 15.8491L15.5043 11.2778C16.1405 10.6651 16.5 9.81995 16.5 8.93673V6.75C16.5 4.95507 15.0449 3.5 13.25 3.5H11.2759ZM9.65521 5.68931C10.0793 5.24886 10.6645 5 11.2759 5H13.25C14.2165 5 15 5.7835 15 6.75V8.93673C15 9.41231 14.8064 9.86741 14.4639 10.1973L9.71678 14.7686C9.32425 15.1466 8.70135 15.1407 8.31603 14.7554L5.41812 11.8575C4.93646 11.3758 4.92912 10.5972 5.4016 10.1065L9.65521 5.68931Z" fill="#4A4A4A"/>
</svg>

<svg viewBox="0 0 20 20" xmlns="http://www.w3.org/2000/svg"><path d="M13 8a1 1 0 1 0 0-2 1 1 0 0 0 0 2Z" fill="#5C5F62"/><path fill-rule="evenodd" d="M11.276 3.5a3.75 3.75 0 0 0-2.701 1.149l-4.254 4.417a2.75 2.75 0 0 0 .036 3.852l2.898 2.898a2.5 2.5 0 0 0 3.502.033l4.747-4.571a3.25 3.25 0 0 0 .996-2.341v-2.187a3.25 3.25 0 0 0-3.25-3.25h-1.974Zm-1.62 2.19a2.25 2.25 0 0 1 1.62-.69h1.974c.966 0 1.75.784 1.75 1.75v2.187c0 .475-.194.93-.536 1.26l-4.747 4.572a1 1 0 0 1-1.401-.014l-2.898-2.898a1.25 1.25 0 0 1-.016-1.75l4.253-4.418Z" fill="#5C5F62"/></svg>
